X:18343
T:Vous-autres jeunes gens - bourree
C:traditionell
Z:abc transcription Simon Wascher
N:please mail errors to: simon.wascher@chello.at
M:2/4
L:1/8
K:Dm
F|DE FG|A3A|B3/2A/2 GA|FE DF|
D3/2E/2 FG|A3A|B3/2A/2 GA|FE DA||
A2 d2|A3A|BA GF|E3F|
G2 B2|AG FE|1D3A:|2D3|]
